TiltedControls.Shared/Resources/InputPromptImages/Nintendo/Switch-R.svg

<svg xmlns="http://www.w3.org/2000/svg" version="1.1" xmlns:xlink="http://www.w3.org/1999/xlink" x="0px" y="0px" viewBox="0 0 100 100">
<defs>
<g id="Layer1_0_FILL">
<path fill="#1B1B1B" stroke="none" d="
M 39.15 51.15
Q 37.65 50.2 36 49.5
L 27.6 46.25 27.6 71.55 32.4 73.4 32.4 63.25 34.7 64.2 39.25 76.15 45.05 78.4 39.5 65.55
Q 41.8 65.9 43 64.55 44.2 63.2 44.2 60.45 44.2 58.25 43.55 56.5 42.9 54.8 41.8 53.4 40.7 52.1 39.15 51.15
M 35.5 54.15
Q 36.2 54.35 36.85 54.65 37.5 55.1 38.05 55.6 38.55 56 38.9 56.75 39.2 57.55 39.2 58.45 39.2 59.55 38.85 59.85 38.5 60.35 37.85 60.35 37.3 60.45 36.55 60.25 35.8 59.95 35.2 59.65
L 32.4 58.55 32.4 52.85 35.5 54.15 Z"/>

<path fill="#4F4F4F" stroke="none" d="
M 83.95 66.65
Q 87.55 56.95 83.25 44.6 77.65 28.85 61.1 20.95 44.5 12.95 24.4 16.35 15.05 21.5 14.5 30.2 28.2 31.15 46.1 39 58.75 44.2 64.7 55.25 70.75 66.2 65.8 76.5 68.2 81.55 73.2 82.55 80.2 76.35 83.95 66.65
M 57.25 31.75
L 57.2 31.75
Q 71.4 40.65 75 50.55 78.85 60.35 74.3 70.45 73.65 60.85 70.35 52.35 67 43.85 54.55 36
L 54.55 35.95
Q 42.15 28 27.6 25.25 43.55 23 57.25 31.75 Z"/>

<path fill="#626262" stroke="none" d="
M 57.2 31.75
L 57.25 31.75
Q 43.55 23 27.6 25.25 42.15 28 54.55 35.95
L 54.55 36
Q 67 43.85 70.35 52.35 73.65 60.85 74.3 70.45 78.85 60.35 75 50.55 71.4 40.65 57.2 31.75 Z"/>
</g>

<path id="Layer1_0_1_STROKES" stroke="#1B1B1B" stroke-width="5" stroke-linejoin="round" stroke-linecap="round" fill="none" d="
M 83.95 66.65
Q 87.55 56.95 83.25 44.6 77.65 28.85 61.1 20.95 44.5 12.95 24.4 16.35 15.05 21.5 14.5 30.2 28.2 31.15 46.1 39 58.75 44.2 64.7 55.25 70.75 66.2 65.8 76.5 68.2 81.55 73.2 82.55 80.2 76.35 83.95 66.65 Z"/>

</defs>

<g transform="matrix( 1, 0, 0, 1, 0,0) ">
<use xlink:href="#Layer1_0_FILL"/>

<use xlink:href="#Layer1_0_1_STROKES"/>
</g>

<g transform="matrix( 1, 0, 0, 1, -3.4,-28) ">
<clipPath id="Mask_Mask_1">
<rect x="-2.9" y="-2" width="112.6" height="20.8" fill="#FFFFFF" stroke="none"/>
</clipPath>

<text clip-path="url(#Mask_Mask_1)" writing-mode="lr"><tspan x="-0.85" y="13.6" baseline-shift="0%" kerning="auto" font-family="Arial_Regular" font-size="15" fill="#999999" xml:space="preserve">Nintendo Switch</tspan></text>
</g>
</svg>

<?xml version="1.0" encoding="utf-8"?>
<!-- Generator: Adobe Illustrator 25.0.0, SVG Export Plug-In . SVG Version: 6.00 Build 0)  -->
<svg version="1.1" id="Layer_1" xmlns="http://www.w3.org/2000/svg" xmlns:xlink="http://www.w3.org/1999/xlink" x="0px" y="0px"
	 viewBox="0 0 100 100" style="enable-background:new 0 0 100 100;" xml:space="preserve">
<g transform="matrix( 1, 0, 0, 1, 0,0) ">
	<g>
		<g id="Layer1_0_FILL">
			<path style="fill:#1B1B1B;" d="M39.2,51.2c-1-0.6-2-1.2-3.2-1.7l-8.4-3.2v25.3l4.8,1.8V63.2l2.3,0.9l4.5,12l5.8,2.2l-5.5-12.8
				c1.5,0.2,2.7-0.1,3.5-1c0.8-0.9,1.2-2.3,1.2-4.1c0-1.5-0.2-2.8-0.7-4c-0.4-1.1-1-2.2-1.8-3.1C41.1,52.5,40.2,51.8,39.2,51.2
				 M35.5,54.2c0.5,0.1,0.9,0.3,1.3,0.5c0.4,0.3,0.8,0.6,1.2,0.9c0.3,0.3,0.6,0.7,0.9,1.2c0.2,0.5,0.3,1.1,0.3,1.7
				c0,0.7-0.1,1.2-0.4,1.4c-0.2,0.3-0.6,0.5-1,0.5c-0.4,0.1-0.8,0-1.3-0.1c-0.5-0.2-0.9-0.4-1.3-0.6l-2.8-1.1v-5.7L35.5,54.2z"/>
			<path style="fill:#4F4F4F;" d="M83.9,66.7c2.4-6.5,2.2-13.8-0.7-22.1C79.5,34.1,72.1,26.2,61.1,21c-11.1-5.3-23.3-6.9-36.7-4.6
				c-6.2,3.4-9.5,8-9.9,13.9c9.1,0.6,19.7,3.6,31.6,8.8c8.4,3.5,14.6,8.9,18.6,16.2c4,7.3,4.4,14.4,1.1,21.2
				c1.6,3.4,4.1,5.4,7.4,6.1C77.9,78.4,81.4,73.1,83.9,66.7 M57.2,31.8L57.2,31.8C66.7,37.7,72.6,44,75,50.5
				c2.6,6.5,2.3,13.2-0.7,19.9c-0.4-6.4-1.8-12.4-4-18.1c-2.2-5.7-7.5-11.1-15.8-16.3v0c-8.3-5.3-17.2-8.9-26.9-10.7
				C38.2,23.8,48.1,25.9,57.2,31.8z"/>
			<path style="fill:#626262;" d="M57.2,31.8L57.2,31.8c-9.1-5.8-19-8-29.6-6.5c9.7,1.8,18.7,5.4,26.9,10.7v0
				c8.3,5.2,13.6,10.7,15.8,16.3c2.2,5.7,3.5,11.7,4,18.1c3-6.7,3.3-13.4,0.7-19.9C72.6,44,66.7,37.7,57.2,31.8z"/>
		</g>
	</g>
	<g>
		<path id="Layer1_0_1_STROKES" style="fill:none;stroke:#1B1B1B;stroke-width:5;stroke-linecap:round;stroke-linejoin:round;" d="
			M83.9,66.7c2.4-6.5,2.2-13.8-0.7-22.1C79.5,34.1,72.1,26.2,61.1,21c-11.1-5.3-23.3-6.9-36.7-4.6c-6.2,3.4-9.5,8-9.9,13.9
			c9.1,0.6,19.7,3.6,31.6,8.8c8.4,3.5,14.6,8.9,18.6,16.2c4,7.3,4.4,14.4,1.1,21.2c1.6,3.4,4.1,5.4,7.4,6.1
			C77.9,78.4,81.4,73.1,83.9,66.7z"/>
	</g>
</g>
<g transform="matrix( 1, 0, 0, 1, -3.4,-28) ">
	<g>
		<defs>
			<rect id="SVGID_1_" x="-2.9" y="-2" width="112.6" height="20.8"/>
		</defs>
		<clipPath id="SVGID_2_">
			<use xlink:href="#SVGID_1_"  style="overflow:visible;"/>
		</clipPath>
	</g>
</g>
</svg>
